<?xml version="1.0" encoding="UTF-8"?>
<map version="1.10" tiledversion="1.11.2" orientation="orthogonal" renderorder="right-down" width="40" height="40" tilewidth="16" tileheight="16" infinite="0" nextlayerid="7" nextobjectid="1">
 <tileset firstgid="1" source="groundFinalColor.tsx"/>
 <tileset firstgid="865" source="ground1.tsx"/>
 <tileset firstgid="1729" source="buildings.tsx"/>
 <tileset firstgid="1731" source="decor.tsx"/>
 <tileset firstgid="1735" source="Bushe1.tsx"/>
 <layer id="1" name="Ground" width="40" height="40" locked="1">
  <data encoding="csv">
865,2684355749,2684355713,2684355677,2684355641,2684355605,2684355569,2684355533,2684355497,2684355461,2684355749,2684355713,2684355677,2684355641,2684355605,2684355569,2684355533,2684355497,2684355461,2684355749,2684355713,2684355677,2684355641,2684355605,2684355569,2684355533,2684355749,2684355713,2684355677,2684355641,2684355749,2684355713,2684355677,2684355641,2684355605,2684355569,2684355533,2684355497,2684355461,876,
901,976,977,978,979,980,975,976,977,978,979,980,975,976,977,978,979,980,975,976,977,978,979,980,975,976,977,978,979,980,975,976,977,978,979,980,975,976,977,3221226661,
937,1012,1013,1014,1015,1016,1011,1012,1013,1014,1015,1016,1011,1012,1013,1014,1015,1016,1011,1012,1013,1014,1015,1016,1011,1012,1013,1014,1015,1016,1011,1012,1013,1014,1015,1016,1011,1012,1013,3221226625,
973,1048,1049,1050,1051,1052,1047,1048,1049,1050,1051,1052,1047,1048,1049,1050,1051,1052,1047,1048,1049,1050,1051,1052,1047,1048,1049,1050,1051,1052,1047,1048,1049,1050,1051,1052,1047,1048,1049,3221226589,
1009,1084,1085,1086,1087,1088,1083,1084,1085,1086,1087,1088,1083,1084,1085,1086,1087,1088,1083,1084,1085,1086,1087,1088,1083,1084,1085,1086,1087,1088,1083,1084,1085,1086,1087,1088,1083,1084,1085,3221226553,
1045,1120,1121,1122,1123,1124,1119,1120,1121,1122,1123,1124,1119,1120,1121,1122,1123,1124,1119,1120,1121,1122,1123,1124,1119,1120,1121,1122,1123,1124,1119,1120,1121,1122,1123,1124,1119,1120,1121,3221226517,
1081,1156,1157,1158,1159,1160,1155,1156,1157,1158,1159,1160,1155,1156,1157,1158,1159,1160,1155,1156,1157,1158,1159,1160,1155,1156,1157,1158,1159,1160,1155,1156,1157,1158,1159,1160,1155,1156,1157,3221226481,
1117,940,941,942,943,944,939,940,941,942,943,944,939,940,941,942,943,944,939,940,941,942,943,944,939,940,941,942,943,944,939,940,941,942,943,944,939,940,941,3221226445,
1153,976,977,978,979,980,975,976,977,978,979,980,975,976,977,978,979,980,975,976,977,978,979,980,975,976,977,978,979,980,975,976,977,978,979,980,975,976,977,3221226409,
1189,1012,1013,1014,1015,1016,1011,1012,1013,1014,1015,1016,1011,1012,1013,1014,1015,1016,1011,939,940,941,942,943,944,1012,1013,1014,1015,1016,1011,1012,1013,1014,1015,1016,1011,1012,1013,3221226373,
901,1048,1049,1050,1051,1052,1047,1048,1049,1050,1051,1052,1047,1048,1049,1050,1051,1052,1047,975,976,977,978,979,980,1048,1049,1050,1051,1052,1047,1048,1049,1050,1051,1052,1047,1048,1049,3221226661,
937,1084,1085,1086,1087,1088,1083,1084,1085,1086,1087,1088,1083,1084,1085,1086,1087,1088,1083,1011,1012,1013,1014,1015,1016,1084,1085,1086,1087,1088,1083,1084,1085,1086,1087,1088,1083,1084,1085,3221226625,
973,1120,1121,1122,1123,1124,1119,1120,1121,1122,1123,1124,1119,1120,1121,1122,1123,1124,1119,1047,1048,1049,1050,1051,1052,1120,1121,1122,1123,1124,1119,1120,1121,1122,1123,1124,1119,1120,1121,3221226589,
1009,1156,1157,1158,1159,1160,1155,1156,1157,1158,1159,1160,1155,1156,1157,1158,1159,1160,1155,1083,1084,1085,1086,1087,1088,1156,1157,1158,1159,1160,1155,1156,1157,1158,1159,1160,1155,1156,1157,3221226553,
1045,940,941,942,943,944,939,940,941,942,943,944,939,940,941,942,943,944,939,1119,1120,1121,1122,1123,1124,940,941,942,943,944,939,940,941,942,943,944,939,940,941,3221226517,
1081,976,977,978,979,980,975,976,977,978,979,980,975,976,977,978,979,980,975,1155,1156,1157,1158,1159,1160,976,977,978,979,980,975,976,977,978,979,980,975,976,977,3221226481,
1117,1012,1013,1014,1015,1016,1011,1012,1013,1014,1015,1016,1011,1012,1013,1014,1015,1016,1011,1012,1013,1014,1015,1016,1011,1012,1013,1014,1015,1016,1011,1012,1013,1014,1015,1016,1011,1012,1013,3221226445,
1153,1048,1049,1050,1051,1052,1047,1048,1049,1050,1051,1052,1047,1048,1049,1050,1051,1052,1047,1048,1049,1050,1051,1052,1047,1048,1049,1050,1051,1052,1047,1048,1049,1050,1051,1052,1047,1048,1049,3221226409,
1189,1084,1085,1086,1087,1088,1083,1084,1085,1086,1087,1088,1083,1084,1085,1086,1087,1088,1083,1084,1085,1086,1087,1088,1083,1084,1085,1086,1087,1088,1083,1084,1085,1086,1087,1088,1083,1084,1085,3221226373,
901,1120,1121,1122,1123,1124,1119,1120,1121,1122,1123,1124,1119,1120,1121,1122,1123,1124,1119,1120,1121,1122,1123,1124,1119,1120,1121,1122,1123,1124,1119,1120,1121,1122,1123,1124,1119,1120,1121,3221226661,
937,1156,1157,1158,1159,1160,1155,1156,1157,1158,1159,1160,1155,1156,1157,1158,1159,1160,1155,1156,1157,1158,1159,1160,1155,1156,1157,1158,1159,1160,1155,1156,1157,1158,1159,1160,1155,1156,1157,3221226625,
973,940,941,942,943,944,939,940,941,942,943,944,939,940,941,942,943,944,939,940,941,942,943,944,939,940,941,942,943,944,939,940,941,942,943,944,939,940,941,3221226589,
1009,976,977,978,979,980,975,976,977,978,979,980,975,976,977,978,979,980,975,976,977,978,979,980,975,976,977,978,979,509,510,511,512,978,979,980,975,976,977,3221226553,
1045,1012,1013,1014,1015,1016,1011,1012,1013,1014,1015,1016,1011,1012,1013,1014,1015,1016,1011,1012,1013,1014,1015,1016,1011,1012,1013,1014,1015,1016,1011,1012,1013,1014,1015,1016,1011,1012,1013,3221226517,
1081,1048,1049,1050,1051,1052,1047,1048,1049,1050,1051,1052,1047,1048,1049,1050,1051,1052,1047,1048,1049,1050,1051,1052,1047,1048,1049,1050,1051,1052,1047,1048,1049,1050,1051,1052,1047,1048,1049,3221226481,
1117,1084,1085,1086,1087,1088,1083,1084,1085,1086,1087,1088,1083,1084,1085,1086,1087,1088,1083,1084,1085,1086,1087,1088,1083,1084,1085,1086,1087,1088,1083,1084,1085,1086,1087,1088,1083,1084,1085,3221226445,
1153,1120,1121,1122,1123,1124,1119,1120,1121,1122,1123,1124,1119,1120,1121,1122,1123,1124,1119,1120,1121,1122,1123,1124,1119,1120,1121,1122,1123,1124,1119,1120,1121,1122,1123,1124,1119,1120,1121,3221226661,
1189,1156,1157,1158,1159,1160,1155,1156,1157,1158,1159,1160,1155,1156,1157,1158,1159,1160,1155,1156,1157,1158,1159,1160,1155,1156,1157,1158,1159,1160,1155,1156,1157,1158,1159,1160,1155,1156,1157,3221226625,
973,940,941,942,943,944,939,940,941,942,943,944,939,940,941,942,943,944,939,940,941,942,943,944,939,940,941,942,943,944,939,940,941,942,943,944,939,940,941,3221226589,
1009,976,977,978,979,980,975,976,977,978,979,980,975,976,977,978,979,980,975,976,977,978,979,980,975,976,977,978,979,980,975,976,977,978,979,980,975,976,977,3221226553,
1045,1012,1013,1014,1015,1016,1011,1012,1013,1014,1015,1016,1011,1012,1013,1014,1015,1016,1011,1012,1013,1014,1015,1016,1011,1012,1013,1014,1015,1016,1011,1012,1013,1014,1015,1016,1011,1012,1013,3221226661,
1081,1048,1049,1050,1051,1052,1047,1048,1049,1050,1051,1052,1047,1048,1049,1050,1051,1052,1047,1048,1049,1050,1051,1052,1047,1048,1049,1050,1051,1052,1047,1048,1049,1050,1051,1052,1047,1048,1049,3221226625,
1117,1084,1085,1086,1087,1088,1083,1084,1085,1086,1087,1088,1083,1084,1085,1086,1087,1088,1083,1084,1085,1086,1087,1088,1083,1084,1085,1086,1087,1088,1083,1084,1085,1086,1087,1088,1083,1084,1085,3221226589,
1153,1120,1121,1122,1123,1124,1119,1120,1121,1122,1123,1124,1119,1120,1121,1122,1123,1124,1119,1120,1121,1122,1123,1124,1119,1120,1121,1122,1123,1124,1119,1120,1121,1122,1123,1124,1119,1120,1121,3221226553,
1189,1156,1157,1158,1159,1160,1155,1156,1157,1158,1159,1160,1155,1156,1157,1158,1159,1160,1155,1156,1157,1158,1159,1160,1155,1156,1157,1158,1159,1160,1155,1156,1157,1158,1159,1160,1155,1156,1157,3221226517,
1081,940,941,942,943,944,939,940,941,942,943,944,939,940,941,942,943,944,939,940,941,942,943,944,939,940,941,942,943,944,939,940,941,942,943,944,939,940,941,3221226481,
1117,976,977,978,979,980,975,976,977,978,979,980,975,976,977,978,979,980,975,976,977,978,979,980,975,976,977,978,979,980,975,976,977,978,979,980,975,976,977,3221226445,
1153,1012,1013,1014,1015,1016,1011,1012,1013,1014,1015,1016,1011,1012,1013,1014,1015,1016,1011,1012,1013,1014,1015,1016,1011,1012,1013,1014,1121,1121,1122,1123,1124,1121,1122,1123,1124,1124,1013,3221226409,
1189,1048,1049,1050,1051,1052,1047,1048,1049,1050,1051,1052,1047,1048,1049,1050,1051,1052,1047,1048,1049,1050,1051,1052,1047,1048,1049,1050,1157,1157,1158,1159,1160,1157,1158,1159,1160,1160,1049,3221226373,
1261,1264,1265,1266,1267,1268,1264,1265,1266,1267,1268,1269,1270,1270,1264,1264,1264,1264,1265,1266,1267,1268,1269,1270,1264,1265,1266,1267,1268,1269,1270,1270,1267,1268,1269,1270,1270,1270,1271,1272
</data>
 </layer>
 <layer id="6" name="collision" width="40" height="40" visible="0" locked="1">
  <data encoding="csv">
0,0,0,0,0,0,0,0,0,0,0,0,0,0,0,0,0,0,0,0,0,0,0,0,0,0,0,0,0,0,0,0,0,0,0,0,0,0,0,0,
0,0,0,0,0,0,0,0,0,0,0,0,0,0,0,0,0,0,0,0,0,0,0,0,0,0,0,0,0,0,0,0,0,0,0,0,0,0,0,0,
0,0,0,0,0,0,0,0,0,0,0,0,0,0,0,0,0,0,0,0,0,0,0,0,0,0,0,0,0,0,0,0,1597,1597,0,0,0,0,0,0,
0,0,0,0,0,0,0,0,0,0,0,0,0,0,0,1597,1597,0,0,0,0,0,0,0,0,0,0,0,0,0,0,0,1597,1597,1597,0,0,0,0,0,
0,0,0,0,0,0,0,0,0,0,0,0,0,0,1597,1597,1597,1597,0,0,0,0,0,0,0,0,0,0,0,0,0,0,0,0,0,0,0,0,0,0,
0,0,0,0,0,0,1597,1597,0,0,0,0,0,0,0,0,1597,0,0,0,0,0,0,0,0,0,1597,1597,1597,0,0,0,0,0,0,0,0,0,0,0,
0,0,0,0,0,0,0,0,0,0,0,0,0,0,0,0,0,0,0,0,0,0,0,0,0,0,1597,1597,1597,0,0,0,0,0,0,0,0,0,0,0,
0,0,0,0,0,0,0,0,0,0,0,0,0,0,0,0,0,0,0,0,0,0,0,0,0,1597,1597,0,1597,0,0,0,0,0,0,0,0,0,0,0,
0,0,0,0,0,0,0,0,0,0,0,0,0,0,0,0,0,0,0,0,0,0,0,0,0,0,0,0,0,0,0,0,0,0,0,0,0,0,0,0,
0,0,0,0,0,0,0,0,0,0,0,0,0,0,0,0,0,0,0,0,0,0,0,0,0,0,0,0,0,0,0,0,0,0,0,0,0,0,0,0,
0,0,0,0,0,0,0,0,0,0,0,0,0,865,865,865,865,865,865,865,865,865,865,0,0,0,0,0,0,0,0,0,0,0,0,0,0,0,0,0,
0,0,0,0,0,0,0,0,0,0,0,0,0,865,0,0,0,0,0,0,0,0,865,0,0,0,0,0,0,0,0,0,0,0,0,0,0,0,0,0,
0,0,0,0,0,0,0,0,0,0,0,0,0,865,0,0,0,0,0,0,0,0,865,0,0,0,0,0,0,0,0,0,0,0,0,0,0,0,0,0,
0,0,0,0,0,0,0,0,0,0,0,0,1597,1597,1597,1597,1597,1597,1597,1597,1597,1597,1597,1597,1597,1597,1597,1597,1597,1597,1597,1597,0,0,0,0,0,0,0,0,
0,0,0,0,0,0,0,0,0,0,0,0,1597,1597,0,0,0,0,0,0,0,0,1597,0,0,0,1597,1597,0,0,0,1597,0,0,0,0,0,0,0,0,
0,0,0,0,0,0,0,0,0,0,0,0,1597,1597,0,0,0,0,0,0,0,0,1597,0,0,1597,1597,1597,1597,0,0,1597,865,0,0,0,0,0,0,0,
0,0,0,0,0,0,0,0,0,0,0,0,1597,1597,0,0,0,0,0,0,0,0,1597,0,0,0,1597,1597,1597,0,0,0,0,865,0,0,0,0,0,0,
0,0,0,0,0,0,0,0,0,0,0,0,1597,1597,0,0,0,0,0,0,0,0,1597,0,0,0,0,0,0,0,0,0,0,0,865,0,0,0,0,0,
0,0,0,0,0,0,1597,1597,0,0,0,0,1597,1597,0,0,0,0,0,0,0,0,1597,0,0,0,0,0,0,0,0,0,0,0,0,865,0,0,0,0,
0,0,0,0,0,0,0,0,0,0,0,0,1597,1597,0,0,0,1597,0,0,0,1597,1597,0,0,0,0,0,0,0,0,0,0,0,0,0,0,0,0,0,
0,0,0,0,0,0,0,0,0,0,0,0,1597,1597,1597,1597,1597,1597,1597,1597,1597,1597,1597,0,0,0,0,0,0,0,0,0,0,0,0,0,0,0,0,0,
0,0,0,0,0,0,0,0,0,0,0,0,1597,0,0,0,0,0,0,0,0,0,0,0,0,0,0,0,0,0,0,1597,0,0,0,0,0,0,0,0,
0,0,0,0,0,0,0,0,0,0,0,0,1597,1597,1597,1597,1597,1597,1597,1597,1597,1597,1597,1597,1597,1597,1597,1597,1597,1597,1597,1597,1597,1597,1597,1597,0,0,0,0,
0,0,0,0,0,0,0,0,0,0,0,0,1597,0,0,0,0,0,0,0,0,0,0,0,0,0,0,0,0,0,0,1597,0,0,0,0,0,0,0,0,
0,0,0,0,0,0,0,0,0,0,0,0,1597,0,0,0,0,0,0,0,0,0,0,0,0,0,0,0,0,0,0,1597,0,0,0,0,0,0,0,0,
0,0,0,0,0,0,0,0,0,0,0,0,1597,1597,1597,1597,1597,1597,1597,1597,1597,1597,1597,1597,1597,1597,1597,1597,1597,1597,1597,1597,0,0,0,0,0,0,0,0,
0,0,0,0,0,0,0,1597,1597,0,0,0,0,0,0,0,0,0,0,0,0,0,0,0,0,0,0,0,0,0,0,0,0,0,0,0,0,0,0,0,
0,0,0,0,0,0,1597,1597,1597,1597,0,0,0,0,0,0,0,0,0,0,0,0,0,0,0,0,0,0,0,0,0,0,0,0,0,0,0,0,0,0,
0,0,0,0,0,0,1597,1597,1597,1597,0,0,0,0,0,0,0,0,0,0,0,0,0,0,0,0,0,0,0,0,0,0,0,0,0,0,0,0,0,0,
0,0,0,0,0,0,0,0,0,0,0,0,0,0,0,0,0,0,0,0,0,0,0,0,0,0,0,0,0,0,0,0,0,0,0,0,0,0,0,0,
0,0,0,0,0,0,0,0,0,0,0,0,0,0,0,0,0,0,0,0,0,0,0,0,0,0,0,0,0,0,0,0,1597,1597,1597,0,0,0,0,0,
0,0,0,0,0,0,0,0,0,0,0,0,0,0,0,0,0,0,1597,1597,0,0,0,0,0,0,0,0,0,0,0,0,0,1597,1597,1597,0,0,0,0,
0,0,0,0,1597,0,1597,0,0,0,0,0,0,0,0,0,0,0,1597,1597,0,0,0,0,0,0,0,0,0,0,0,0,0,0,0,0,0,0,0,0,
0,0,0,0,0,1597,1597,0,0,0,0,0,0,0,0,0,0,0,0,0,0,0,0,0,0,0,0,1597,1597,0,0,0,0,0,0,0,0,0,0,0,
0,0,0,0,0,0,0,0,0,0,0,0,0,0,0,0,0,0,0,0,0,0,0,0,0,0,1597,1597,1597,1597,0,0,0,0,0,0,0,0,0,0,
0,0,0,0,0,0,0,0,0,0,0,0,0,0,0,0,0,0,0,0,0,0,0,0,0,0,1597,1597,1597,1597,0,0,0,0,0,0,0,0,0,0,
0,0,0,0,0,0,0,0,0,0,0,0,0,0,0,0,0,0,0,0,0,0,0,0,0,0,0,0,0,0,0,0,0,0,0,0,0,0,0,0,
0,0,0,0,0,0,0,0,0,0,0,0,0,0,0,0,0,0,0,0,0,0,0,0,0,0,0,0,0,0,0,0,0,0,0,0,0,0,0,0,
0,0,0,0,0,0,0,0,0,0,0,0,0,0,0,0,0,0,0,0,0,0,0,0,0,0,0,0,0,0,0,0,0,0,0,0,0,0,0,0,
0,0,0,0,0,0,0,0,0,0,0,0,0,0,0,0,0,0,0,0,0,0,0,0,0,0,0,0,0,0,0,0,0,0,0,0,0,0,0,0
</data>
 </layer>
 <layer id="2" name="platform" width="40" height="40" locked="1">
  <data encoding="csv">
0,0,0,0,0,0,0,0,0,0,0,0,0,0,0,0,0,0,0,0,0,0,0,0,0,0,0,0,0,0,0,0,0,0,0,0,0,0,0,0,
0,0,0,0,0,0,0,0,0,0,0,0,0,0,0,0,0,0,0,0,0,0,0,0,0,0,0,0,0,0,0,0,0,0,0,0,0,0,0,0,
0,0,0,0,0,0,0,0,0,0,0,0,0,0,0,0,0,0,0,0,0,0,0,0,0,0,0,0,0,0,0,0,0,0,0,0,0,0,0,0,
0,0,0,0,0,0,0,0,0,0,0,0,0,0,0,0,0,0,0,0,0,0,0,0,0,0,0,0,0,0,0,0,0,0,0,0,0,0,0,0,
0,0,0,0,0,0,0,0,0,0,0,0,0,0,0,0,0,0,0,0,0,0,0,0,0,0,0,0,0,0,0,0,0,0,0,0,0,0,0,0,
0,0,0,0,0,0,0,0,0,0,0,0,0,0,0,0,0,0,0,0,0,0,0,0,0,0,0,0,0,0,0,0,0,0,0,0,0,0,0,0,
0,0,0,0,0,0,0,0,0,0,0,0,0,0,0,0,0,0,0,0,0,0,0,0,0,0,0,0,0,0,0,0,0,0,0,0,0,0,0,0,
0,0,0,0,0,0,0,0,0,0,0,0,0,0,0,0,0,0,0,0,0,0,0,0,0,0,0,0,0,0,0,0,0,0,0,0,0,0,0,0,
0,0,0,0,0,0,0,0,0,0,0,0,0,0,0,0,0,0,0,0,0,0,0,0,0,0,0,0,0,0,0,0,0,0,0,0,0,0,0,0,
0,0,0,0,0,0,0,0,0,0,0,0,0,0,0,0,0,0,0,0,0,0,0,0,0,0,0,0,0,0,0,0,0,0,0,0,0,0,0,0,
0,0,0,0,0,0,0,0,0,0,0,0,0,0,0,0,0,0,0,0,0,0,0,0,0,0,0,0,0,0,0,0,0,0,0,0,0,0,0,0,
0,0,0,0,0,0,0,0,0,0,0,0,0,0,0,0,0,0,0,0,0,0,0,0,0,0,0,0,0,0,0,0,0,0,0,0,0,0,0,0,
0,0,0,0,0,0,0,0,0,0,0,0,0,0,0,0,0,0,0,0,0,0,0,0,0,0,0,0,0,0,0,0,0,0,0,0,0,0,0,0,
0,0,0,0,0,0,0,0,0,0,0,0,21,22,23,24,25,26,27,28,29,30,31,24,25,26,27,28,29,30,31,32,0,0,0,0,0,0,0,0,
0,0,0,0,0,0,0,0,0,0,0,0,57,58,59,60,61,62,63,64,65,66,67,60,61,62,63,64,65,66,67,68,0,0,0,0,0,0,0,0,
0,0,0,0,0,0,0,0,0,0,0,0,273,274,275,276,277,278,279,280,281,282,283,96,97,98,99,100,101,102,103,104,1453,1454,1455,1456,0,0,0,0,
0,0,0,0,0,0,0,0,0,0,0,0,309,310,311,312,313,314,315,316,317,318,319,132,133,134,135,136,137,138,242,243,1489,1490,1491,1492,0,0,0,0,
0,0,0,0,0,0,0,0,0,0,0,0,345,346,347,348,349,350,351,352,353,354,168,168,168,170,171,172,173,174,242,243,1525,1526,1527,1528,0,0,0,0,
0,0,0,0,0,0,0,0,0,0,0,0,381,382,383,384,385,386,387,388,389,390,204,204,204,168,168,208,209,210,242,243,1561,1562,1563,1564,0,0,0,0,
0,0,0,0,0,0,0,0,0,0,0,0,489,490,491,492,493,494,495,496,497,493,494,495,493,204,204,244,245,246,247,248,1597,1598,1599,1600,0,0,0,0,
0,0,0,0,0,0,0,0,0,0,0,0,525,526,527,528,529,530,531,532,533,529,530,531,529,530,531,532,533,534,535,536,1633,1634,1635,1636,0,0,0,0,
0,0,0,0,0,0,0,0,0,0,0,0,561,562,563,564,565,566,567,568,569,565,566,567,565,566,567,568,569,570,571,671,1669,1670,1671,1672,0,0,0,0,
0,0,0,0,0,0,0,0,0,0,0,0,597,598,599,600,601,602,603,604,605,601,602,603,601,602,603,604,605,606,607,608,1705,1706,1707,1708,0,0,0,0,
0,0,0,0,0,0,0,0,0,0,0,0,633,634,635,636,637,638,639,640,641,637,638,639,637,638,639,640,641,642,643,644,0,0,0,0,0,0,0,0,
0,0,0,0,0,0,0,0,0,0,0,0,669,670,671,672,673,674,675,676,677,673,674,675,673,674,675,676,677,678,679,680,0,0,0,0,0,0,0,0,
0,0,0,0,0,0,0,0,0,0,0,0,705,706,707,708,709,710,711,712,713,709,710,711,709,710,711,712,713,714,715,716,0,0,0,0,0,0,0,0,
0,0,0,0,0,0,0,0,0,0,0,0,0,0,0,0,0,0,0,0,0,0,0,0,0,0,0,0,0,0,0,0,0,0,0,0,0,0,0,0,
0,0,0,0,0,0,0,0,0,0,0,0,0,0,0,0,0,0,0,0,0,0,0,0,0,0,0,0,0,0,0,0,0,0,0,0,0,0,0,0,
0,0,0,0,0,0,0,0,0,0,0,0,0,0,0,0,0,0,0,0,0,0,0,0,0,0,0,0,0,0,0,0,0,0,0,0,0,0,0,0,
0,0,0,0,0,0,0,0,0,0,0,0,0,0,0,0,0,0,0,0,0,0,0,0,0,0,0,0,0,0,0,0,0,0,0,0,0,0,0,0,
0,0,0,0,0,0,0,0,0,0,0,0,0,0,0,0,0,0,0,0,0,0,0,0,0,0,0,0,0,0,0,0,0,0,0,0,0,0,0,0,
0,0,0,0,0,0,0,0,0,0,0,0,0,0,0,0,0,0,0,0,0,0,0,0,0,0,0,0,0,0,0,0,0,0,0,0,0,0,0,0,
0,0,0,0,0,0,0,0,0,0,0,0,0,0,0,0,0,0,0,0,0,0,0,0,0,0,0,0,0,0,0,0,0,0,0,0,0,0,0,0,
0,0,0,0,0,0,0,0,0,0,0,0,0,0,0,0,0,0,0,0,0,0,0,0,0,0,0,0,0,0,0,0,0,0,0,0,0,0,0,0,
0,0,0,0,0,0,0,0,0,0,0,0,0,0,0,0,0,0,0,0,0,0,0,0,0,0,0,0,0,0,0,0,0,0,0,0,0,0,0,0,
0,0,0,0,0,0,0,0,0,0,0,0,0,0,0,0,0,0,0,0,0,0,0,0,0,0,0,0,0,0,0,0,0,0,0,0,0,0,0,0,
0,0,0,0,0,0,0,0,0,0,0,0,0,0,0,0,0,0,0,0,0,0,0,0,0,0,0,0,0,0,0,0,0,0,0,0,0,0,0,0,
0,0,0,0,0,0,0,0,0,0,0,0,0,0,0,0,0,0,0,0,0,0,0,0,0,0,0,0,0,0,0,0,0,0,0,0,0,0,0,0,
0,0,0,0,0,0,0,0,0,0,0,0,0,0,0,0,0,0,0,0,0,0,0,0,0,0,0,0,0,0,0,0,0,0,0,0,0,0,0,0,
0,0,0,0,0,0,0,0,0,0,0,0,0,0,0,0,0,0,0,0,0,0,0,0,0,0,0,0,0,0,0,0,0,0,0,0,0,0,0,0
</data>
 </layer>
 <layer id="4" name="Castle" width="40" height="40" locked="1">
  <data encoding="csv">
0,0,0,0,0,0,0,0,0,0,0,0,0,0,0,0,0,0,0,0,0,0,0,0,0,0,0,0,0,0,0,0,0,0,0,0,0,0,0,0,
0,0,0,0,0,0,0,0,0,0,0,0,0,0,0,0,0,0,0,0,0,0,0,0,0,0,0,0,0,0,0,0,0,0,0,0,0,0,0,0,
0,0,0,0,0,0,0,0,0,0,0,0,0,0,0,0,0,0,0,0,0,0,0,0,0,0,0,0,0,0,0,0,0,0,0,0,0,0,0,0,
0,0,0,0,0,0,0,0,0,0,0,0,0,0,0,0,0,0,0,0,0,0,0,0,0,0,0,0,0,0,0,0,0,0,0,0,0,0,0,0,
0,0,0,0,0,0,0,0,0,0,0,0,0,0,0,0,0,0,0,0,0,0,0,0,0,0,0,0,0,0,0,0,0,0,0,0,0,0,0,0,
0,0,0,0,0,0,0,0,0,0,0,0,0,0,0,0,0,0,0,0,0,0,0,0,0,0,0,0,0,0,0,0,0,0,0,0,0,0,0,0,
0,0,0,0,0,0,0,0,0,0,0,0,0,0,0,0,0,0,0,0,0,0,0,0,0,0,0,0,0,0,0,0,0,0,0,0,0,0,0,0,
0,0,0,0,0,0,0,0,0,0,0,0,0,0,0,0,0,0,0,0,0,0,0,0,0,0,0,0,0,0,0,0,0,0,0,0,0,0,0,0,
0,0,0,0,0,0,0,0,0,0,0,0,0,0,0,0,0,0,0,0,0,0,0,0,0,0,0,0,0,0,0,0,0,0,0,0,0,0,0,0,
0,0,0,0,0,0,0,0,0,0,0,0,0,0,0,0,0,0,0,0,0,0,0,0,0,0,0,0,0,0,0,0,0,0,0,0,0,0,0,0,
0,0,0,0,0,0,0,0,0,0,0,0,0,0,0,0,0,0,0,0,0,0,0,0,0,0,0,0,0,0,0,0,0,0,0,0,0,0,0,0,
0,0,0,0,0,0,0,0,0,0,0,0,0,0,0,0,0,0,0,0,0,0,0,0,0,0,0,0,0,0,0,0,0,0,0,0,0,0,0,0,
0,0,0,0,0,0,0,0,0,0,0,0,0,0,0,0,0,0,0,0,0,0,0,0,0,0,0,0,0,0,0,0,0,0,0,0,0,0,0,0,
0,0,0,0,0,0,0,0,0,0,0,0,0,0,0,0,0,0,0,0,0,0,0,0,0,0,0,0,0,0,0,0,0,0,0,0,0,0,0,0,
0,0,0,0,0,0,0,0,0,0,0,0,0,0,0,0,0,0,0,0,0,0,0,0,0,0,0,0,0,0,0,0,0,0,0,0,0,0,0,0,
0,0,0,0,0,0,0,0,0,0,0,0,0,0,0,0,0,0,0,0,0,0,0,0,0,0,0,0,0,0,0,0,0,0,0,0,0,0,0,0,
0,0,0,0,0,0,0,0,0,0,0,0,0,0,0,0,0,0,0,0,0,0,0,0,0,0,0,0,0,0,0,0,0,0,0,0,0,0,0,0,
0,0,0,0,0,0,0,0,0,0,0,0,0,0,0,0,0,0,0,0,0,0,0,0,0,0,0,0,0,0,0,0,0,0,0,0,0,0,0,0,
0,0,0,0,0,0,0,0,0,0,0,0,0,0,0,0,0,0,0,0,0,0,0,0,0,0,0,0,0,0,0,0,0,0,0,0,0,0,0,0,
0,0,0,0,0,0,0,0,0,0,0,0,0,0,0,0,0,0,0,0,0,0,0,0,0,0,0,0,0,0,0,0,0,0,0,0,0,0,0,0,
0,0,0,0,0,0,0,0,0,0,0,0,0,0,0,0,0,0,0,0,0,0,0,0,0,0,0,0,0,0,0,0,0,0,0,0,0,0,0,0,
0,0,0,0,0,0,0,0,0,0,0,0,1730,0,0,0,0,0,0,0,0,0,0,0,0,0,0,0,0,0,0,0,0,0,0,0,0,0,0,0,
0,0,0,0,0,0,0,0,0,0,0,0,0,0,0,0,0,0,0,0,0,0,0,0,0,0,0,0,0,0,0,0,0,0,0,0,0,0,0,0,
0,0,0,0,0,0,0,0,0,0,0,0,0,0,0,0,0,0,0,0,0,0,0,0,0,0,0,0,0,0,0,0,0,0,0,0,0,0,0,0,
0,0,0,0,0,0,0,0,0,0,0,0,0,0,0,0,0,0,0,0,0,0,0,0,0,0,0,0,0,0,0,0,0,0,0,0,0,0,0,0,
0,0,0,0,0,0,0,0,0,0,0,0,0,0,0,0,0,0,0,0,0,0,0,0,0,0,0,0,0,0,0,0,0,0,0,0,0,0,0,0,
0,0,0,0,0,0,0,0,0,0,0,0,0,0,0,0,0,0,0,0,0,0,0,0,0,0,0,0,0,0,0,0,0,0,0,0,0,0,0,0,
0,0,0,0,0,0,0,0,0,0,0,0,0,0,0,0,0,0,0,0,0,0,0,0,0,0,0,0,0,0,0,0,0,0,0,0,0,0,0,0,
0,0,0,0,0,0,0,0,0,0,0,0,0,0,0,0,0,0,0,0,0,0,0,0,0,0,0,0,0,0,0,0,0,0,0,0,0,0,0,0,
0,0,0,0,0,0,0,0,0,0,0,0,0,0,0,0,0,0,0,0,0,0,0,0,0,0,0,0,0,0,0,0,0,0,0,0,0,0,0,0,
0,0,0,0,0,0,0,0,0,0,0,0,0,0,0,0,0,0,0,0,0,0,0,0,0,0,0,0,0,0,0,0,0,0,0,0,0,0,0,0,
0,0,0,0,0,0,0,0,0,0,0,0,0,0,0,0,0,0,0,0,0,0,0,0,0,0,0,0,0,0,0,0,0,0,0,0,0,0,0,0,
0,0,0,0,0,0,0,0,0,0,0,0,0,0,0,0,0,0,0,0,0,0,0,0,0,0,0,0,0,0,0,0,0,0,0,0,0,0,0,0,
0,0,0,0,0,0,0,0,0,0,0,0,0,0,0,0,0,0,0,0,0,0,0,0,0,0,0,0,0,0,0,0,0,0,0,0,0,0,0,0,
0,0,0,0,0,0,0,0,0,0,0,0,0,0,0,0,0,0,0,0,0,0,0,0,0,0,0,0,0,0,0,0,0,0,0,0,0,0,0,0,
0,0,0,0,0,0,0,0,0,0,0,0,0,0,0,0,0,0,0,0,0,0,0,0,0,0,0,0,0,0,0,0,0,0,0,0,0,0,0,0,
0,0,0,0,0,0,0,0,0,0,0,0,0,0,0,0,0,0,0,0,0,0,0,0,0,0,0,0,0,0,0,0,0,0,0,0,0,0,0,0,
0,0,0,0,0,0,0,0,0,0,0,0,0,0,0,0,0,0,0,0,0,0,0,0,0,0,0,0,0,0,0,0,0,0,0,0,0,0,0,0,
0,0,0,0,0,0,0,0,0,0,0,0,0,0,0,0,0,0,0,0,0,0,0,0,0,0,0,0,0,0,0,0,0,0,0,0,0,0,0,0,
0,0,0,0,0,0,0,0,0,0,0,0,0,0,0,0,0,0,0,0,0,0,0,0,0,0,0,0,0,0,0,0,0,0,0,0,0,0,0,0
</data>
 </layer>
 <layer id="5" name="Decors" width="40" height="40" locked="1">
  <data encoding="csv">
0,0,0,0,0,0,0,0,0,0,0,0,0,0,0,0,0,0,0,0,0,0,0,0,0,0,0,0,0,0,0,0,0,0,0,0,0,0,0,0,
0,0,0,0,0,0,0,0,0,0,0,0,0,0,0,0,0,0,0,0,0,0,0,0,0,0,0,0,0,0,0,0,0,0,0,0,0,0,0,0,
0,0,0,0,0,0,0,0,0,0,0,0,0,0,0,0,0,0,0,0,0,0,0,0,0,0,0,0,0,0,0,0,0,0,0,0,0,0,0,0,
0,0,0,0,0,0,0,0,0,0,0,0,0,0,1865,1866,1867,1868,0,0,0,0,0,0,0,0,0,0,0,0,0,0,0,0,0,0,0,0,0,0,
0,0,0,0,0,0,0,0,0,0,0,0,0,0,1929,1930,1931,1932,0,0,0,0,0,0,0,0,0,0,0,0,0,1732,0,0,0,0,0,0,0,0,
0,0,0,0,0,0,0,0,0,0,0,0,0,0,1993,1994,1995,1996,0,0,0,0,0,0,0,1921,1922,1923,1924,0,0,0,0,0,0,0,0,0,0,0,
0,0,0,0,0,1731,0,0,0,0,0,0,0,0,0,0,0,0,0,0,0,0,0,0,0,1985,1986,1987,1988,0,0,0,0,0,0,0,0,0,0,0,
0,0,0,0,0,0,0,0,0,0,0,0,0,0,0,0,0,0,0,0,0,0,0,0,0,2049,2050,2051,2052,0,0,0,0,0,0,0,0,0,0,0,
0,0,0,0,0,0,0,0,0,0,0,0,0,0,0,0,0,0,0,0,0,0,0,0,0,0,0,0,0,0,0,0,0,0,0,0,0,0,0,0,
0,0,0,0,0,0,0,0,0,0,0,0,0,0,0,0,0,0,0,0,0,0,0,0,0,0,0,0,0,0,0,0,0,0,0,0,0,0,0,0,
0,0,0,0,0,0,0,0,0,0,0,0,0,0,0,0,0,0,0,0,0,0,0,0,0,0,0,0,0,0,0,0,0,0,0,0,0,0,0,0,
0,0,0,0,0,0,0,0,0,0,0,0,0,0,0,0,0,0,0,0,0,0,0,0,0,0,0,0,0,0,0,0,0,0,0,0,0,0,0,0,
0,0,0,0,0,0,0,0,0,0,0,0,0,0,0,0,0,0,0,0,0,0,0,0,0,0,0,0,0,0,0,0,0,0,0,0,0,0,0,0,
0,0,0,0,0,0,0,0,0,0,0,0,0,0,0,0,0,0,0,0,0,0,0,0,0,0,0,0,0,0,0,0,0,0,0,0,0,0,0,0,
0,0,0,0,0,0,0,0,0,0,0,0,0,0,0,0,0,0,0,0,0,0,0,0,0,1921,1922,1923,1924,0,0,0,0,0,0,0,0,0,0,0,
0,0,0,0,0,0,0,0,0,0,0,0,0,0,0,0,0,0,0,0,0,0,0,0,0,1985,1986,1987,1988,0,0,0,0,0,0,0,0,0,0,0,
0,0,0,0,0,0,0,0,0,0,0,0,0,0,0,0,0,0,0,0,0,0,0,0,0,2049,2050,2051,2052,0,0,0,0,0,0,0,0,0,0,0,
0,0,0,0,0,0,0,0,0,0,0,0,0,0,0,0,0,0,0,0,0,0,0,0,0,0,0,0,0,0,0,0,0,0,0,0,0,0,0,0,
0,0,0,0,0,0,0,0,0,0,0,0,0,0,0,0,0,0,0,0,0,0,0,0,0,0,0,0,0,0,0,0,0,0,0,0,0,0,0,0,
0,0,0,0,0,1733,0,0,0,0,0,0,0,0,0,0,0,0,0,0,0,0,0,0,0,0,0,0,0,0,0,0,0,0,0,0,0,0,0,0,
0,0,0,0,0,0,0,0,0,0,0,0,0,0,0,0,0,0,0,0,0,0,0,0,0,0,0,0,0,0,0,0,0,0,0,0,0,0,0,0,
0,0,0,0,0,0,0,0,0,0,0,0,0,0,0,0,0,0,0,0,0,0,0,0,0,0,0,0,0,0,0,0,0,0,0,0,0,0,0,0,
0,0,0,0,0,0,0,0,0,0,0,0,0,0,0,0,0,0,0,0,0,0,0,0,0,0,0,0,0,0,0,0,0,0,0,0,0,0,0,0,
0,0,0,0,0,0,0,0,0,0,0,0,0,0,0,0,0,0,0,0,0,0,0,0,0,0,0,0,0,0,0,0,0,0,0,0,0,0,0,0,
0,0,0,0,0,0,0,0,0,0,0,0,0,0,0,0,0,0,0,0,0,0,0,0,0,0,0,0,0,0,0,0,0,0,0,0,0,0,0,0,
0,0,0,0,0,0,0,0,0,0,0,0,0,0,0,0,0,0,0,0,0,0,0,0,0,0,0,0,0,0,0,0,0,0,0,0,0,0,0,0,
0,0,0,0,0,0,1865,1866,1867,1868,0,0,0,0,0,0,0,0,0,0,0,0,0,0,0,0,0,0,0,0,0,0,0,0,0,0,0,0,0,0,
0,0,0,0,0,0,1929,1930,1931,1932,0,0,0,0,0,0,0,0,0,0,0,0,0,0,0,0,0,0,0,0,0,0,0,0,0,0,0,0,0,0,
0,0,0,0,0,0,1993,1994,1995,1996,0,0,0,0,0,0,0,0,0,0,0,0,0,0,0,0,0,0,0,0,0,0,0,0,0,0,0,0,0,0,
0,0,0,0,0,0,0,0,0,0,0,0,0,0,0,0,0,0,0,0,0,0,0,0,0,0,0,0,0,0,0,0,0,0,0,0,0,0,0,0,
0,0,0,0,0,0,0,0,0,0,0,0,0,0,0,0,0,0,0,0,0,0,0,0,0,0,0,0,0,0,0,0,0,0,0,0,0,0,0,0,
0,0,0,0,0,0,0,0,0,0,0,0,0,0,0,0,0,0,0,0,0,0,0,0,0,0,0,0,0,0,0,0,0,0,0,0,0,0,0,0,
0,0,0,0,0,0,0,0,0,0,0,0,0,0,0,0,0,0,0,0,0,0,0,0,0,0,0,0,0,0,0,0,1734,0,0,0,0,0,0,0,
0,0,0,0,0,0,0,0,0,0,0,0,0,0,0,0,0,1732,0,0,0,0,0,0,0,0,1865,1866,1867,1868,0,0,0,0,0,0,0,0,0,0,
0,0,0,0,1734,0,0,0,0,0,0,0,0,0,0,0,0,0,0,0,0,0,0,0,0,0,1929,1930,1931,1932,0,0,0,0,0,0,0,0,0,0,
0,0,0,0,0,0,0,0,0,0,0,0,0,0,0,0,0,0,0,0,0,0,0,0,0,0,1993,1994,1995,1996,0,0,0,0,0,0,0,0,0,0,
0,0,0,0,0,0,0,0,0,0,0,0,0,0,0,0,0,0,0,0,0,0,0,0,0,0,0,0,0,0,0,0,0,0,0,0,0,0,0,0,
0,0,0,0,0,0,0,0,0,0,0,0,0,0,0,0,0,0,0,0,0,0,0,0,0,0,0,0,0,0,0,0,0,0,0,0,0,0,0,0,
0,0,0,0,0,0,0,0,0,0,0,0,0,0,0,0,0,0,0,0,0,0,0,0,0,0,0,0,0,0,0,0,0,0,0,0,0,0,0,0,
0,0,0,0,0,0,0,0,0,0,0,0,0,0,0,0,0,0,0,0,0,0,0,0,0,0,0,0,0,0,0,0,0,0,0,0,0,0,0,0
</data>
 </layer>
</map>
